public/images/logos/carrefour.svg

<?xml version="1.0" encoding="UTF-8"?><svg id="a" xmlns="http://www.w3.org/2000/svg" viewBox="0 0 466.84 80"><defs><style>.f{stroke-width:0px;}</style></defs><path id="b" class="f" d="m211.97,49.06c-4.15,0-7.18,2.09-7.18,6.09,0,3.75,2.63,6.36,6.59,6.36,2.64,0,5.27-1.46,6.92-3.56v-5.34c0-1.78-2.31-3.56-6.33-3.56m89.66-.74c.2,7.03,4.68,12.11,12.38,12.11,4.68,0,8.24-2.54,9.49-4.13.59.45,1.19,1.11,1.19,2.67,0,3.5-4.22,8.33-14.04,8.33s-17.92-7.88-17.92-18.18c0-11.34,7.45-19.44,18.45-19.44,10,0,14.62,7.37,14.62,13.64,0,1.85-.4,3.56-1.19,4.99h-22.99,0Zm13.97-4.54c1.58,0,1.65-.93,1.65-2.16-.07-3.7-2.97-7.12-7.38-7.12-5.73,0-7.97,4.8-8.17,9.28h13.9Zm92.95,3.88c0,8.59,1.19,12.96,6.73,12.96,6.05,0,7.7-5.4,7.7-10.31v-9.37c0-3.22-1.52-4.47-5.01-4.09-1.45-3.62,3.36-5.92,6.07-6.45.85-.13,1.64-.26,2.38-.26,3.81,0,5.28,2.38,5.28,5.94,0,1.31-.13,3.69-.13,13.55,0,4.17-.07,6.37-.07,7.06,0,3.25,1.5,4.9,4.99,4.52,1.43,3.62-3.35,5.34-6.07,5.85-.84.13-1.6.25-2.22.25-3.62,0-4.36-2.35-5.09-5.72-.51.63-.98,1.15-1.97,2.1-2.37,2.22-5.47,3.56-8.96,3.56-3.82,0-7.05-1.47-9.09-3.87-3.16-3.75-3.16-8.58-3.16-15.64v-6.78c0-3.22-1.52-4.47-5.01-4.09-1.45-3.62,3.36-5.92,6.06-6.45.86-.13,1.64-.26,2.37-.26,3.82,0,5.27,2.38,5.27,5.94l-.07,11.57h0Zm-16.66.74c0-11.14-7.71-18.71-18.38-18.71-9.88,0-18.65,7.57-18.65,18.71s8.23,18.84,18.32,18.84c10.67,0,18.71-7.69,18.71-18.84m-165.36,9.82c0,2.84,1.84,3.75,5.07,4.19-.2,3.3-2.51,4.58-5.2,4.83-3.03.25-6-1.15-7.18-4.32-1.39,1.26-5.47,4.44-10.81,4.44-7.31,0-12.78-4.9-12.78-11.57,0-7.05,6.13-11.23,14.76-11.23,2.97,0,6.06.62,7.91,1.57v-4.72c0-4.23-1.85-6.92-6.65-6.92-.99,0-3.16.26-4.88.91.2.67.33,1.38.33,2.04,0,2.58-1.65,4.68-4.41,4.68-2.44,0-4.29-1.97-4.29-4.48,0-4.61,5.8-7.97,13.84-7.97,6.39,0,10.28,1.51,12.32,4.15,1.84,2.31,1.97,5.87,1.97,11.01v13.38h0Zm155.94-9.27c0,8.56-3.69,13.21-8.89,13.21-4.61,0-9.09-4.65-9.09-14.8,0-7.91,3.29-12.85,8.7-12.85,5.33,0,9.29,5.47,9.29,14.44m-129.85-12.99c.2,2.25,2.11,3.82,4.35,3.82,2.83,0,4.55-2.51,4.55-4.95,0-3.43-2.77-5.2-5.54-5.2-3.16,0-6.52,2.38-8.43,5.93l-.13.07c-.59-3.16-2.11-5.54-5.27-5.54-.72,0-1.51.14-2.37.4-2.64.79-6.52,2.83-5.07,6.45,3.69-.71,5.01.53,5.01,3.75v15.32c0,3.04-.39,4.32-1.45,5.21-.99.76-2.04,1.07-2.7,1.2-1.51,3.3,1.45,4.33,8.76,4.33s9.82-1.03,8.3-4.33c-.66-.13-2.5-.45-3.49-1.2-1.06-.89-1.51-2.17-1.51-5.21v-9.24c0-8.24,3.03-10.41,5-10.8m90.65-5.34h9.42c1.12,2.7-.39,4.87-2.5,5.07-.66.07-1.38.07-2.04.07-1.72,0-3.43-.14-4.61-.14v20.38c0,3.04.53,4.32,1.58,5.21.99.76,3.3,1.07,3.96,1.2,1.51,3.3-2.05,4.33-9.36,4.33s-10.34-1.03-8.83-4.33c.66-.13,1.72-.45,2.7-1.2,1.05-.89,1.45-2.17,1.45-5.21v-20.52l-5.53-.2c-1.12-2.69.39-4.61,2.63-4.61h2.77v-2.64c0-5.34.99-8.3,2.3-10.28,2.04-3.16,5.53-5.33,11-5.33,6.92,0,12.52,3.23,12.52,8.1,0,2.11-1.45,4.68-4.48,4.68-2.24,0-4.35-1.91-4.35-4.28,0-.99.4-2.05.92-2.7-.79-.92-2.44-1.39-4.02-1.39-4.55,0-5.53,3.36-5.53,7.58v6.2h0Zm-60.68,5.34c.2,2.25,2.11,3.82,4.35,3.82,2.83,0,4.54-2.51,4.54-4.95,0-3.43-2.77-5.2-5.53-5.2-3.16,0-6.52,2.38-8.43,5.93l-.14.07c-.59-3.16-2.11-5.54-5.27-5.54-.72,0-1.51.14-2.37.4-2.64.79-6.53,2.83-5.07,6.45,3.69-.71,5,.53,5,3.75v15.32c0,3.04-.39,4.32-1.45,5.21-.99.76-2.04,1.07-2.7,1.2-1.52,3.3,1.45,4.33,8.76,4.33s9.82-1.03,8.3-4.33c-.66-.13-2.5-.45-3.49-1.2-1.05-.89-1.51-2.17-1.51-5.21v-9.24c0-8.24,3.03-10.41,5-10.8m175.34,0c.22,2.25,2.15,3.82,4.4,3.82,2.79,0,4.51-2.51,4.51-4.95,0-3.43-2.73-5.2-5.53-5.2-3.15,0-6.47,2.38-8.38,5.93l-.19.07c-.58-3.16-2.11-5.54-5.21-5.54-.77,0-1.52.14-2.43.4-2.6.79-6.47,2.83-5.06,6.45,3.7-.71,5,.53,5,3.75v15.32c0,3.04-.38,4.32-1.47,5.21-.95.76-2.03,1.07-2.66,1.2-1.53,3.3,1.46,4.33,8.77,4.33s9.78-1.03,8.25-4.33c-.63-.13-2.47-.45-3.5-1.2-1-.89-1.45-2.17-1.45-5.21v-9.24c0-8.24,2.98-10.41,4.95-10.8"/><path id="c" class="f" d="m146.84,41.11c0,16.63,11.46,26.47,23.91,26.47,11.2,0,19.04-7.88,19.04-14.43,0-3.49-2.17-6.03-5.01-6.03s-5.33,1.97-5.33,5.34c0,2.16,1.18,3.36,2.04,4.31-1.52,2.93-4.75,5.34-9.75,5.34-8.3,0-14.29-8.65-14.29-21.08s5.73-21.15,14.03-21.15c5.01,0,8.23,2.44,9.75,5.34-.86.99-2.04,2.17-2.04,4.35,0,3.36,2.44,5.33,5.34,5.33s5-2.56,5-6.06c0-6.53-7.84-14.43-19.04-14.43-12.46,0-23.65,10.8-23.65,26.68"/><path id="d" class="f" d="m35.68,2.7L2.7,34.61c-1.65,1.4-2.7,3.04-2.7,5.39s1.05,3.99,2.7,5.4l32.99,31.9c.21.22.42.3.59.3.31,0,.53-.28.52-.62,0-.2-.09-.42-.29-.62-7.74-9.62-13.38-20.65-13.38-36.25S28.76,13.26,36.5,3.64c.2-.19.28-.42.29-.62.01-.34-.21-.62-.52-.62-.17,0-.38.08-.59.3"/><path id="e" class="f" d="m61.04,0c-12.92,0-17.96,18.3-17.96,40.12s5.05,39.88,17.96,39.88c7.75,0,14.36-4.54,14.38-8.27,0-.82-.31-1.6-1-2.28-3.67-3.55-5.11-7.1-5.12-10.23-.02-5.98,5.16-10.43,9.94-10.43,6.57,0,10.44,5.16,10.44,11.85,0,6.34-2.7,11.61-5.64,15.84-.12.17-.17.37-.17.53,0,.33.2.6.49.6.18,0,.39-.09.61-.32l32.99-31.9c1.65-1.41,2.7-3.06,2.7-5.4s-1.05-3.99-2.7-5.39L84.99,2.7c-.23-.23-.43-.32-.61-.32-.29,0-.49.27-.49.61,0,.17.05.36.17.54,2.94,4.22,5.64,9.5,5.64,15.84,0,6.68-3.87,11.85-10.44,11.85-4.78,0-9.96-4.45-9.94-10.42.01-3.13,1.45-6.68,5.12-10.23.69-.69,1-1.46,1-2.28-.02-3.74-6.63-8.28-14.38-8.28"/></svg>

<?xml version="1.0" encoding="UTF-8" standalone="no"?>
<svg id="a" viewBox="0 0 32 32" version="1.1" sodipodi:docname="carrefour.svg" width="32" height="32" inkscape:version="1.4-beta2 (9aaf4f34, 2024-07-30)" xmlns:inkscape="http://www.inkscape.org/namespaces/inkscape" xmlns:sodipodi="http://sodipodi.sourceforge.net/DTD/sodipodi-0.dtd" xmlns="http://www.w3.org/2000/svg" xmlns:svg="http://www.w3.org/2000/svg">
  <sodipodi:namedview id="namedview1" pagecolor="#ffffff" bordercolor="#000000" borderopacity="0.25" inkscape:showpageshadow="2" inkscape:pageopacity="0.0" inkscape:pagecheckerboard="0" inkscape:deskcolor="#d1d1d1" inkscape:zoom="0.325" inkscape:cx="233.84615" inkscape:cy="38.461538" inkscape:window-width="1440" inkscape:window-height="790" inkscape:window-x="0" inkscape:window-y="0" inkscape:window-maximized="1" inkscape:current-layer="a" />
  <defs id="defs1">
    <style id="style1">.f{stroke-width:0px;}</style>
  </defs>
  <g id="g1" transform="matrix(0.26520802,0,0,0.26520802,1.534e-7,5.3916792)">
    <path id="d" class="f" d="M 35.68,2.7 2.7,34.61 C 1.05,36.01 0,37.65 0,40 c 0,2.35 1.05,3.99 2.7,5.4 l 32.99,31.9 c 0.21,0.22 0.42,0.3 0.59,0.3 0.31,0 0.53,-0.28 0.52,-0.62 0,-0.2 -0.09,-0.42 -0.29,-0.62 C 28.77,66.74 23.13,55.71 23.13,40.11 23.13,24.51 28.76,13.26 36.5,3.64 36.7,3.45 36.78,3.22 36.79,3.02 36.8,2.68 36.58,2.4 36.27,2.4 36.1,2.4 35.89,2.48 35.68,2.7" />
    <path id="e" class="f" d="M 61.04,0 C 48.12,0 43.08,18.3 43.08,40.12 43.08,61.94 48.13,80 61.04,80 c 7.75,0 14.36,-4.54 14.38,-8.27 0,-0.82 -0.31,-1.6 -1,-2.28 -3.67,-3.55 -5.11,-7.1 -5.12,-10.23 -0.02,-5.98 5.16,-10.43 9.94,-10.43 6.57,0 10.44,5.16 10.44,11.85 0,6.34 -2.7,11.61 -5.64,15.84 -0.12,0.17 -0.17,0.37 -0.17,0.53 0,0.33 0.2,0.6 0.49,0.6 0.18,0 0.39,-0.09 0.61,-0.32 l 32.99,-31.9 c 1.65,-1.41 2.7,-3.06 2.7,-5.4 0,-2.34 -1.05,-3.99 -2.7,-5.39 L 84.99,2.7 C 84.76,2.47 84.56,2.38 84.38,2.38 c -0.29,0 -0.49,0.27 -0.49,0.61 0,0.17 0.05,0.36 0.17,0.54 2.94,4.22 5.64,9.5 5.64,15.84 0,6.68 -3.87,11.85 -10.44,11.85 -4.78,0 -9.96,-4.45 -9.94,-10.42 0.01,-3.13 1.45,-6.68 5.12,-10.23 0.69,-0.69 1,-1.46 1,-2.28 C 75.42,4.55 68.81,0.01 61.06,0.01" />
  </g>
</svg>
